Newaita-dark/.DP/22/teamviewer-indicator-connected.svg

<svg xmlns="http://www.w3.org/2000/svg" xmlns:xlink="http://www.w3.org/1999/xlink" width="22px" height="22px" viewBox="0 0 22 22" version="1.1">
<g id="surface1">
<path style=" stroke:none;fill-rule:nonzero;fill:rgb(93.333334%,93.333334%,93.333334%);fill-opacity:1;" d="M 10.914062 2.898438 C 6.378906 2.898438 2.726562 6.550781 2.726562 11.085938 C 2.726562 15.621094 6.378906 19.273438 10.914062 19.273438 C 12.214844 19.273438 13.4375 18.972656 14.527344 18.441406 L 13.140625 17.054688 C 12.601562 16.53125 12.597656 15.652344 13.128906 15.121094 C 13.660156 14.585938 14.539062 14.59375 15.0625 15.132812 L 16.136719 16.203125 L 18.410156 12.632812 L 18.40625 12.636719 C 18.558594 12.390625 18.78125 12.203125 19.039062 12.09375 C 19.078125 11.765625 19.101562 11.429688 19.101562 11.085938 C 19.101562 6.550781 15.449219 2.898438 10.914062 2.898438 Z M 13.179688 7.898438 C 13.425781 7.898438 13.660156 7.996094 13.828125 8.171875 L 16.101562 10.445312 C 16.457031 10.800781 16.457031 11.375 16.101562 11.726562 L 13.828125 14 C 13.601562 14.234375 13.265625 14.328125 12.949219 14.242188 C 12.632812 14.160156 12.386719 13.914062 12.304688 13.601562 C 12.222656 13.285156 12.316406 12.949219 12.546875 12.71875 L 13.28125 11.988281 C 13.25 11.992188 13.21875 11.992188 13.191406 11.992188 L 8.550781 11.992188 L 9.28125 12.71875 C 9.515625 12.949219 9.609375 13.285156 9.523438 13.601562 C 9.441406 13.914062 9.195312 14.160156 8.878906 14.242188 C 8.566406 14.328125 8.226562 14.234375 8 14 L 5.726562 11.726562 C 5.371094 11.375 5.371094 10.800781 5.726562 10.445312 L 8 8.171875 C 8.164062 8.003906 8.386719 7.90625 8.625 7.898438 C 8.996094 7.886719 9.339844 8.105469 9.484375 8.449219 C 9.628906 8.792969 9.550781 9.195312 9.28125 9.453125 L 8.550781 10.183594 L 13.191406 10.183594 C 13.21875 10.183594 13.25 10.183594 13.28125 10.183594 L 12.546875 9.453125 C 12.285156 9.195312 12.203125 8.804688 12.339844 8.464844 C 12.480469 8.121094 12.8125 7.898438 13.179688 7.898438 Z M 14.101562 11.007812 C 14.109375 11.0625 14.109375 11.113281 14.105469 11.167969 L 14.183594 11.085938 Z M 18.5 14.179688 L 16.925781 16.65625 C 17.589844 15.941406 18.128906 15.101562 18.5 14.179688 Z M 14.09375 15.628906 C 13.976562 15.625 13.863281 15.671875 13.773438 15.761719 C 13.589844 15.945312 13.59375 16.222656 13.773438 16.40625 C 13.777344 16.40625 13.777344 16.40625 13.78125 16.410156 L 15.347656 17.976562 C 15.632812 17.792969 15.90625 17.59375 16.164062 17.378906 C 16.0625 17.367188 15.964844 17.320312 15.894531 17.246094 L 14.417969 15.769531 C 14.414062 15.769531 14.414062 15.769531 14.414062 15.765625 C 14.324219 15.675781 14.207031 15.628906 14.09375 15.628906 Z M 14.09375 15.628906 "/>
<path style=" stroke:none;fill-rule:nonzero;fill:rgb(93.333334%,93.333334%,93.333334%);fill-opacity:1;" d="M 19.519531 12.445312 C 19.222656 12.460938 18.949219 12.621094 18.792969 12.875 L 16.214844 16.925781 L 14.738281 15.449219 C 14.511719 15.214844 14.175781 15.125 13.859375 15.207031 C 13.542969 15.289062 13.296875 15.535156 13.214844 15.851562 C 13.132812 16.167969 13.226562 16.5 13.457031 16.730469 L 15.730469 19.003906 C 15.925781 19.199219 16.199219 19.292969 16.472656 19.265625 C 16.746094 19.234375 16.988281 19.082031 17.136719 18.847656 L 20.320312 13.847656 C 20.507812 13.5625 20.519531 13.195312 20.347656 12.902344 C 20.179688 12.605469 19.859375 12.429688 19.519531 12.445312 Z M 19.519531 12.445312 "/>
</g>
</svg>

<svg xmlns="http://www.w3.org/2000/svg" width="22pt" height="22pt" viewBox="0 0 22 22"><g fill="#bdbdbd"><path d="M10.914 2.902a8.164 8.164 0 0 0-8.184 8.184 8.167 8.167 0 0 0 8.184 8.187c1.3 0 2.524-.3 3.613-.832l-1.386-1.386a1.365 1.365 0 0 1-.012-1.934 1.362 1.362 0 0 1 1.934.012l1.074 1.07 2.273-3.57-.004.004c.153-.246.375-.434.633-.543a8.167 8.167 0 0 0-8.125-9.191zm2.266 4.996c.246 0 .48.098.648.274l2.274 2.273a.903.903 0 0 1 0 1.282L13.828 14a.906.906 0 0 1-.879.246.91.91 0 0 1-.644-.644.906.906 0 0 1 .246-.88l.73-.734c-.031.004-.062.004-.094.004H8.556l.726.73a.895.895 0 0 1 .242.88.91.91 0 0 1-.644.644A.91.91 0 0 1 8 14l-2.273-2.273a.91.91 0 0 1 0-1.282L8 8.172a.912.912 0 0 1 .625-.274.903.903 0 0 1 .86.551.908.908 0 0 1-.204 1.004l-.726.73h4.633a.377.377 0 0 1 .093.005l-.73-.735a.906.906 0 0 1 .629-1.555zm.922 3.11c.007.05.007.105.003.156l.079-.078zM18.5 14.18l-1.574 2.476A8.125 8.125 0 0 0 18.5 14.18zm-4.406 1.449a.43.43 0 0 0-.32.133.443.443 0 0 0 .003.644l.004.004 1.567 1.567c.285-.184.558-.383.816-.598a.444.444 0 0 1-.27-.133l-1.476-1.476c-.004 0-.004 0-.004-.004a.457.457 0 0 0-.32-.137zm0 0"/><path d="M19.52 12.445a.91.91 0 0 0-.727.43l-2.578 4.05-1.477-1.476a.895.895 0 0 0-.879-.242.898.898 0 0 0-.644.645.913.913 0 0 0 .242.878l2.277 2.274c.192.195.465.289.739.258a.896.896 0 0 0 .664-.41l3.183-5.004a.897.897 0 0 0 .028-.946.903.903 0 0 0-.828-.457zm0 0"/></g></svg>
